assets/images/Header/Links/FAQ.svg

<svg width="32" height="32" viewBox="0 0 32 32" fill="none" xmlns="http://www.w3.org/2000/svg">
<path fill-rule="evenodd" clip-rule="evenodd" d="M4 16C4 9.36705 9.36794 4 16 4C22.633 4 28 9.36794 28 16C28 22.633 22.632 28 16 28H4.9375C4.41972 28 4 27.5803 4 27.0625V16ZM5.875 26.125H16C21.5965 26.125 26.125 21.5958 26.125 16C26.125 10.4035 21.5958 5.875 16 5.875C10.4035 5.875 5.875 10.4042 5.875 16V26.125ZM15.8448 10.5626C13.639 10.5626 12.626 11.8697 12.626 12.752C12.626 13.3893 13.1652 13.6834 13.6064 13.6834C13.978 13.6834 14.1293 13.4602 14.3045 13.2019C14.5453 12.8468 14.8311 12.4253 15.7958 12.4253C16.6128 12.4253 17.2664 12.7848 17.2664 13.5364C17.2664 14.2584 16.6538 14.7287 16.1357 15.1264C16.0206 15.2148 15.9102 15.2996 15.8122 15.3827C15.3384 15.7912 14.7175 16.4611 14.7175 17.8663C14.7175 18.7159 14.9462 18.961 15.6161 18.961C16.4167 18.961 16.5801 18.6016 16.5801 18.2911C16.5801 17.4415 16.5965 16.9513 17.4951 16.2487C17.9363 15.9056 19.3251 14.7945 19.3251 13.2586C19.3251 11.7227 17.9363 10.5626 15.8448 10.5626ZM15.6324 20.0884C14.9462 20.0884 14.3906 20.6603 14.3906 21.3466C14.3906 22.0164 14.9298 22.6047 15.6324 22.6047C16.335 22.6047 16.8905 22.0165 16.8905 21.3466C16.8905 20.6603 16.3187 20.0884 15.6324 20.0884Z" fill="#565656"/>
</svg>

<svg xmlns="http://www.w3.org/2000/svg" width="32" height="32" fill="none" viewBox="0 0 32 32"><path fill="#565656" fill-rule="evenodd" d="M4 16C4 9.367 9.368 4 16 4c6.633 0 12 5.368 12 12 0 6.633-5.368 12-12 12H4.937A.937.937 0 0 1 4 27.062V16zm1.875 10.125H16A10.12 10.12 0 0 0 26.125 16 10.12 10.12 0 0 0 16 5.875 10.12 10.12 0 0 0 5.875 16v10.125zm9.97-15.562c-2.206 0-3.219 1.307-3.219 2.189 0 .637.54.931.98.931.372 0 .523-.223.699-.481.24-.355.526-.777 1.49-.777.818 0 1.471.36 1.471 1.111 0 .722-.612 1.193-1.13 1.59a8.776 8.776 0 0 0-.324.257c-.474.408-1.095 1.078-1.095 2.483 0 .85.23 1.095.9 1.095.8 0 .963-.36.963-.67 0-.85.017-1.34.915-2.042.441-.343 1.83-1.454 1.83-2.99 0-1.536-1.389-2.696-3.48-2.696zm-.213 9.525c-.686 0-1.241.572-1.241 1.259 0 .67.539 1.258 1.241 1.258a1.27 1.27 0 0 0 1.258-1.258 1.27 1.27 0 0 0-1.258-1.259z" clip-rule="evenodd"/></svg>
